brandFactory_export/1.Light/Flecha arriba derecha_1Light.svg

<?xml version="1.0" encoding="UTF-8"?>
<svg width="24px" height="24px" viewBox="0 0 24 24" version="1.1" xmlns="http://www.w3.org/2000/svg" xmlns:xlink="http://www.w3.org/1999/xlink">
    <title>1.Light/Flecha arriba derecha_1Light</title>
    <g id="Symbols" stroke="none" stroke-width="1" fill="none" fill-rule="evenodd">
        <g id="1.Light/Flecha-arriba-derecha_1Light" fill="#5CB615" fill-rule="nonzero">
            <path d="M7.71092437,22.3495798 C7.30420168,22.3495798 6.89411765,22.1478992 6.4907563,21.7478992 L0.426890756,15.6907563 L0.416806723,15.6806723 C-0.403361345,14.7865546 0.278991597,14.097479 0.605042017,13.7680672 L0.608403361,13.7647059 L6.89411765,7.56302521 C6.97815126,7.4789916 6.99159664,7.34453782 6.91428571,7.27058824 L3.58655462,3.94285714 L3.57983193,3.93613445 C3.27731092,3.62016807 3.18991597,3.05882353 3.37478992,2.62857143 C3.54621849,2.23193277 3.90588235,2.00672269 4.36638655,2.00672269 L19.492437,2.00672269 C19.7478992,1.98655462 19.9764706,2.06386555 20.1378151,2.22521008 C20.2991597,2.38655462 20.3764706,2.61848739 20.3563025,2.87058824 L20.3495798,18.0705882 C20.3529412,18.4705882 20.1478992,18.7932773 19.7815126,18.9546218 C19.3344538,19.1529412 18.7361345,19.0621849 18.389916,18.7428571 L18.3798319,18.7327731 L15.3042017,15.6571429 C15.2605042,15.6134454 15.2033613,15.6067227 15.1731092,15.6067227 C15.112605,15.610084 15.0554622,15.6336134 15.0117647,15.6806723 L8.89747899,21.7714286 C8.51428571,22.1579832 8.11428571,22.3495798 7.71092437,22.3495798 L7.71092437,22.3495798 Z M0.907563025,15.2201681 L6.96806723,21.2739496 C7.49915966,21.805042 7.90588235,21.8117647 8.42352941,21.2941176 L14.5344538,15.210084 C14.6991597,15.0453782 14.9176471,14.9478992 15.1495798,14.9411765 C15.3882353,14.9344538 15.610084,15.0218487 15.7781513,15.1865546 L18.8504202,18.2588235 C19.0016807,18.3932773 19.307563,18.4369748 19.5092437,18.3462185 C19.6605042,18.2789916 19.6806723,18.1680672 19.6806723,18.0806723 L19.6806723,18.0773109 L19.687395,2.8605042 C19.687395,2.85042017 19.687395,2.83697479 19.6907563,2.82689076 C19.697479,2.7697479 19.687395,2.72605042 19.6672269,2.70588235 C19.6470588,2.68571429 19.6,2.67563025 19.5462185,2.68235294 C19.5361345,2.68235294 19.5226891,2.68571429 19.512605,2.68571429 L4.37310924,2.68571429 C4.17815126,2.68571429 4.0605042,2.75294118 3.99663866,2.90084034 C3.9092437,3.10252101 3.96638655,3.36470588 4.07058824,3.47563025 L7.39495798,6.8 C7.55966387,6.96470588 7.64705882,7.18991597 7.64033613,7.42857143 C7.63361345,7.6605042 7.5394958,7.8789916 7.37142857,8.04369748 L1.08571429,14.2453782 C0.598319328,14.7327731 0.608403361,14.8941176 0.907563025,15.2201681 L0.907563025,15.2201681 Z" id="Flecha-arriba-derecha_1Light"></path>
        </g>
    </g>
</svg>

<svg width="24" height="24" viewBox="0 0 24 24" xmlns="http://www.w3.org/2000/svg"><path d="M7.71 22.35c-.406 0-.816-.202-1.22-.602L.428 15.69l-.01-.01c-.82-.894-.138-1.584.188-1.913l.003-.003 6.286-6.202c.084-.084.098-.218.02-.292L3.587 3.943l-.007-.007c-.303-.316-.39-.877-.205-1.307.171-.397.53-.622.991-.622h15.126a.803.803 0 01.646.218.807.807 0 01.218.646l-.006 15.2a.919.919 0 01-.568.884c-.448.198-1.046.107-1.392-.212l-.01-.01-3.076-3.076a.186.186 0 00-.13-.05.233.233 0 00-.162.074l-6.115 6.09c-.383.387-.783.579-1.186.579zM.909 15.22l6.06 6.054c.531.531.938.538 1.456.02l6.11-6.084a.907.907 0 01.616-.269c.238-.007.46.08.628.246l3.072 3.072c.152.134.458.178.66.087.15-.067.17-.178.17-.265v-.004l.007-15.216c0-.01 0-.024.004-.034.006-.057-.004-.1-.024-.121-.02-.02-.067-.03-.12-.024-.01 0-.024.004-.034.004H4.373c-.195 0-.312.067-.376.215-.088.202-.03.464.074.575L7.395 6.8c.165.165.252.39.245.629a.892.892 0 01-.269.615l-6.285 6.201c-.488.488-.478.65-.178.975z" fill="#5CB615" fill-rule="nonzero"/></svg>
